X:584
T: WENN WIR FAHREN AUF DIE SEE
N: E1895
O: Europa, Mitteleuropa, Deutschland, Schleswig
R: Kinder - Lied, Tanz, Reigen
M: 2/4
L: 1/16
K: C
 | G2G2G2G2 | G2e2c4
d3cB2A2 | A4G2z2
G2G2G2G2 | G2e2c4
d3cB2A2 | A4G2z2
G4E4 | G4E4 | G4e4 | c4z2
B2 | d4d2c2 | B4B2A2 | G4c4 | E4z4

